suite-common/icons/assets/icons/experimental.svg

<svg xmlns="http://www.w3.org/2000/svg" viewBox="0 0 24 24">
  <path fill-rule="evenodd" d="M16.039.626a1.46 1.46 0 0 0-.45.474c-.074.142-.086.246-.101.905l-.017.745-.75.018c-.725.017-.755.021-.932.125a1.1 1.1 0 0 0-.494.601.6.6 0 0 0-.017.411c.063.285.259.566.494.711.192.118.195.118.95.136l.758.018.001.545c.001.761.042 1.004.209 1.236.169.236.552.449.807.449.219 0 .631-.203.759-.373.221-.296.236-.362.256-1.132l.018-.725.753-.018c.75-.018.753-.018.945-.136.235-.145.431-.426.494-.711a.6.6 0 0 0-.017-.411 1.1 1.1 0 0 0-.494-.601c-.177-.104-.207-.108-.933-.125l-.751-.018-.014-.725c-.013-.651-.024-.742-.102-.89q-.2-.377-.469-.5c-.218-.098-.761-.104-.903-.009m-5.794 3.579c-.513.065-1.065.48-1.301.977-.093.197-.979 2.542-1.653 4.376l-.198.539-1.336.492c-3.391 1.249-3.906 1.466-4.136 1.748a2.45 2.45 0 0 0-.427.918c-.085.422.073.959.404 1.378.252.319.404.385 3.519 1.54l1.976.734.734 1.976c1.231 3.319 1.232 3.323 1.671 3.614.642.426 1.363.425 2.008-.003.416-.276.528-.519 1.728-3.771l.67-1.817 1.818-.673c3.078-1.138 3.335-1.246 3.6-1.519.355-.367.575-1.04.482-1.479-.067-.318-.29-.761-.477-.948-.265-.265-.826-.499-4.082-1.698-1.328-.489-1.335-.492-1.389-.63-.029-.077-.323-.868-.652-1.759-1.149-3.112-1.208-3.249-1.52-3.529a1.8 1.8 0 0 0-1.439-.466M20.49 5.919c-.115.067-.254.19-.307.272-.107.164-.183.509-.183.831v.207l-.31.027a4 4 0 0 0-.468.07c-.712.188-.934 1.068-.407 1.615.201.208.471.299.892.299H20v.258c0 .6.165.913.596 1.132.317.161.473.164.786.016.423-.201.573-.455.607-1.028l.022-.368.385-.019c.284-.014.427-.04.549-.103a1 1 0 0 0 .475-1.207c-.138-.416-.462-.613-1.097-.666l-.313-.026-.02-.357c-.027-.475-.161-.754-.447-.931-.17-.104-.241-.123-.52-.133-.299-.011-.339-.002-.533.111m-9.308 2.583c.99 2.669.987 2.662 1.267 2.962.163.174.319.294.486.373.135.064 1.073.426 2.085.803s1.928.724 2.034.77l.195.084-.135.068a60 60 0 0 1-1.807.695c-2.458.921-2.744 1.053-2.985 1.386-.136.188-.381.798-1.082 2.697-.587 1.589-.72 1.916-.762 1.873-.017-.018-.286-.717-.596-1.553-1.088-2.932-1.153-3.074-1.533-3.315-.299-.189-.765-.38-2.656-1.088a61 61 0 0 1-1.808-.695l-.136-.069.356-.142c.195-.079 1.111-.425 2.035-.77s1.791-.68 1.926-.744c.302-.144.664-.52.804-.836.101-.228.526-1.355 1.17-3.101.414-1.121.432-1.164.484-1.112.02.02.316.791.658 1.714"/>
</svg>

<svg xmlns="http://www.w3.org/2000/svg" viewBox="0 0 24 24"><path d="M16.039 0.626 C 15.853 0.750,15.673 0.940,15.589 1.100 C 15.515 1.242,15.503 1.346,15.488 2.005 L 15.471 2.750 14.721 2.768 C 13.996 2.785,13.966 2.789,13.789 2.893 C 13.555 3.030,13.378 3.245,13.295 3.494 C 13.240 3.661,13.237 3.724,13.278 3.905 C 13.341 4.190,13.537 4.471,13.772 4.616 C 13.964 4.734,13.967 4.734,14.722 4.752 L 15.480 4.770 15.481 5.315 C 15.482 6.076,15.523 6.319,15.690 6.551 C 15.859 6.787,16.242 7.000,16.497 7.000 C 16.716 7.000,17.128 6.797,17.256 6.627 C 17.477 6.331,17.492 6.265,17.512 5.495 L 17.530 4.770 18.283 4.752 C 19.033 4.734,19.036 4.734,19.228 4.616 C 19.463 4.471,19.659 4.190,19.722 3.905 C 19.763 3.724,19.760 3.661,19.705 3.494 C 19.622 3.245,19.445 3.030,19.211 2.893 C 19.034 2.789,19.004 2.785,18.278 2.768 L 17.527 2.750 17.513 2.025 C 17.500 1.374,17.489 1.283,17.411 1.135 C 17.278 0.885,17.120 0.716,16.942 0.635 C 16.724 0.537,16.181 0.531,16.039 0.626 M10.245 4.205 C 9.732 4.270,9.180 4.685,8.944 5.182 C 8.851 5.379,7.965 7.724,7.291 9.558 L 7.093 10.097 5.757 10.589 C 2.366 11.838,1.851 12.055,1.621 12.337 C 1.442 12.555,1.253 12.961,1.194 13.255 C 1.109 13.677,1.267 14.214,1.598 14.633 C 1.850 14.952,2.002 15.018,5.117 16.173 L 7.093 16.907 7.827 18.883 C 9.058 22.202,9.059 22.206,9.498 22.497 C 10.140 22.923,10.861 22.922,11.506 22.494 C 11.922 22.218,12.034 21.975,13.234 18.723 L 13.904 16.906 15.722 16.233 C 18.800 15.095,19.057 14.987,19.322 14.714 C 19.677 14.347,19.897 13.674,19.804 13.235 C 19.737 12.917,19.514 12.474,19.327 12.287 C 19.062 12.022,18.501 11.788,15.245 10.589 C 13.917 10.100,13.910 10.097,13.856 9.959 C 13.827 9.882,13.533 9.091,13.204 8.200 C 12.055 5.088,11.996 4.951,11.684 4.671 C 11.277 4.305,10.766 4.140,10.245 4.205 M20.490 5.919 C 20.375 5.986,20.236 6.109,20.183 6.191 C 20.076 6.355,20.000 6.700,20.000 7.022 L 20.000 7.229 19.690 7.256 C 19.520 7.271,19.309 7.303,19.222 7.326 C 18.510 7.514,18.288 8.394,18.815 8.941 C 19.016 9.149,19.286 9.240,19.707 9.240 L 20.000 9.240 20.000 9.498 C 20.000 10.098,20.165 10.411,20.596 10.630 C 20.913 10.791,21.069 10.794,21.382 10.646 C 21.805 10.445,21.955 10.191,21.989 9.618 L 22.011 9.250 22.396 9.231 C 22.680 9.217,22.823 9.191,22.945 9.128 C 23.373 8.909,23.577 8.392,23.420 7.921 C 23.282 7.505,22.958 7.308,22.323 7.255 L 22.010 7.229 21.990 6.872 C 21.963 6.397,21.829 6.118,21.543 5.941 C 21.373 5.837,21.302 5.818,21.023 5.808 C 20.724 5.797,20.684 5.806,20.490 5.919 M11.182 8.502 C 12.172 11.171,12.169 11.164,12.449 11.464 C 12.612 11.638,12.768 11.758,12.935 11.837 C 13.070 11.901,14.008 12.263,15.020 12.640 C 16.032 13.018,16.948 13.364,17.054 13.410 L 17.249 13.494 17.114 13.562 C 17.041 13.600,16.227 13.913,15.307 14.257 C 12.849 15.178,12.563 15.310,12.322 15.643 C 12.186 15.831,11.941 16.441,11.240 18.340 C 10.653 19.929,10.520 20.256,10.478 20.213 C 10.461 20.195,10.192 19.496,9.882 18.660 C 8.794 15.728,8.729 15.586,8.349 15.345 C 8.050 15.156,7.584 14.965,5.693 14.257 C 4.773 13.913,3.959 13.600,3.885 13.562 L 3.749 13.493 4.105 13.351 C 4.300 13.272,5.216 12.926,6.140 12.581 C 7.064 12.236,7.931 11.901,8.066 11.837 C 8.368 11.693,8.730 11.317,8.870 11.001 C 8.971 10.773,9.396 9.646,10.040 7.900 C 10.454 6.779,10.472 6.736,10.524 6.788 C 10.544 6.808,10.840 7.579,11.182 8.502 " stroke="none" fill-rule="evenodd" fill="black"></path></svg>
